X: 21437
T: Kevin Keegan's
R: waltz
M: 3/4
K: Gmajor
D2|:"G"B3A Bd|"D7"c2B2c2|"G"d g3 B2|d3e dc|
B2 DG AB|"Am"c2A2G2|"D7"FG A2D2|FG A2D2|
"G"B3A Bd|"D7"c2B2c2|"G"dg3 B2|d3e dc|
B2 DG AB|"D7"c2 A2F2|"G"G2 B3"(D7)"A|1 "(G)"G4 D2:|2 "(G)"G2B2d2||
"G"g2f2a2|"C"g2f2e2|"G"d g3 B2|d3e dc|
B2 DG AB|"Am"c2A2G2|"D7"FG A2D2|FG A2D2|
"G"g2f2a2|"C"g2f2e2|"G"d g3 B2|d3e dc|
"G"B2 DG AB|"D7"c2 A2 F2|"G"G2 B3"(D7)"A|1 "(G)"G2B2d2:|2 "(G)"G4||

